X: 12238
T: Fair-haired Lass, The
R: reel
M: 4/4
K: Amixolydian
ea~a2 g3f|ea~a2 ABcd|ea~a2 efge|agec d2cd:|:
eAfA g3f|eAcA B2GB|ABcd eg~g2|agec d2cd|
eAfA gAfA|eAcA B2GB|ABcd eg~g2|agec d2cd||

